X:1
T: Over the Hills
C: J-45
C: Bruce A. Randall  1994
M: 6/8
Z:
R: jig
K: A
E| "A"A2 A/B/ AGA| c2d e2a| "D"f2d "B"B2c| "E"edB GFE|
   "A"A2 A/B/ AGA| c2d e2a| "D"fed "E"B2c| B2A "A"A2:|
|:\
e| "A"e2d/f/ e^de| "D"f2e "A"c2d| "E"edc dgf| "A"fec Acd|
   "A"e2d/f/ e^de| "D"f2e "A"c2a| "D"fed "E"cdB| B2A "A"A2:|
%
